src/assets/img/lottery/up.svg

<svg height="32.756" width="16.309" xmlns:xlink="http://www.w3.org/1999/xlink" xmlns="http://www.w3.org/2000/svg"><use height="32.75" transform="translate(-.011 .017)" width="16.2" xlink:href="#a" style="display:inline"/><defs><linearGradient gradientTransform="matrix(-.0028 -.0048 .0075 -.0043 -80.65 -2.15)" gradientUnits="userSpaceOnUse" id="c" spreadMethod="pad" x1="-819.2" x2="819.2"><stop offset="0" stop-color="#db6f02"/><stop offset=".486" stop-color="#fea64e"/><stop offset="1" stop-color="#ffead5"/></linearGradient><linearGradient gradientTransform="matrix(-.0018 0 0 -.0074 -83.65 -7)" gradientUnits="userSpaceOnUse" id="e" spreadMethod="pad" x1="-819.2" x2="819.2"><stop offset="0" stop-color="#db6f02"/><stop offset=".486" stop-color="#fd9935"/><stop offset="1" stop-color="#ffead5"/></linearGradient><linearGradient gradientTransform="matrix(-.0018 0 0 -.0074 -83.65 -8.55)" gradientUnits="userSpaceOnUse" id="g" spreadMethod="pad" x1="-819.2" x2="819.2"><stop offset="0" stop-color="#db6f02"/><stop offset=".486" stop-color="#fd9935"/><stop offset="1" stop-color="#ffead5"/></linearGradient><linearGradient gradientTransform="matrix(-.0018 -.003 .0044 -.0025 -83.3 -9.85)" gradientUnits="userSpaceOnUse" id="i" spreadMethod="pad" x1="-819.2" x2="819.2"><stop offset="0" stop-color="#db6f02"/><stop offset=".486" stop-color="#fd8002"/><stop offset="1" stop-color="#ffead5"/></linearGradient><linearGradient gradientTransform="matrix(-.0018 0 0 -.0105 -2.55 -11.2)" gradientUnits="userSpaceOnUse" id="d" spreadMethod="pad" x1="-819.2" x2="819.2"><stop offset="0" stop-color="#db6f02"/><stop offset=".486" stop-color="#fd9935"/><stop offset="1" stop-color="#ffead5"/></linearGradient><linearGradient gradientTransform="matrix(-.0018 0 0 -.0105 -2.55 -13.4)" gradientUnits="userSpaceOnUse" id="f" spreadMethod="pad" x1="-819.2" x2="819.2"><stop offset="0" stop-color="#db6f02"/><stop offset=".486" stop-color="#fd9935"/><stop offset="1" stop-color="#ffead5"/></linearGradient><linearGradient gradientTransform="matrix(-.0015 -.0025 .004 -.0023 -2.25 -20.25)" gradientUnits="userSpaceOnUse" id="h" spreadMethod="pad" x1="-819.2" x2="819.2"><stop offset="0" stop-color="#db6f02"/><stop offset=".486" stop-color="#fd8002"/><stop offset="1" stop-color="#ffead5"/></linearGradient><linearGradient gradientTransform="matrix(-.0028 -.0048 .0075 -.0043 -.4 -.35)" gradientUnits="userSpaceOnUse" id="j" spreadMethod="pad" x1="-819.2" x2="819.2"><stop offset="0" stop-color="#db6f02"/><stop offset=".486" stop-color="#fea64e"/><stop offset="1" stop-color="#ffead5"/></linearGradient><use height="32.75" width="16.2" xlink:href="#b" id="a"/><g id="b" fill-rule="evenodd"><path d="M-8.2-2.45q.75-2.85 3.15-4.45v-9.5l-1.3-1.5q-1-1.7-.5-3.55.5-1.95 2.2-2.9 1.7-1 3.6-.5H-1q1.85.5 2.85 2.25.95 1.65.45 3.55-.5 1.9-2.2 2.9l-.15.1v7.6l1.75.3q3.2.85 4.9 3.8 1.65 2.85.8 6.1-.85 3.2-3.75 4.9-2.9 1.65-6.15.8-3.2-.9-4.9-3.75-1.65-2.9-.8-6.15" fill="#884100" transform="translate(8.5 25)"/><path d="M-4.05-12.05v-6.25q-.05-.65.4-1.05.45-.45 1.1-.45.65 0 1.1.45.4.4.4 1.05v6.25h-3" fill="url(#c)" style="fill:url(#d)" transform="translate(8.5 25)"/><path d="M-4.05-12.05h3v5.75q0 .6-.4 1.05-.45.45-1.1.45-.65 0-1.1-.45-.45-.45-.4-1.05v-5.75" fill="url(#e)" style="fill:url(#f)" transform="translate(8.5 25)"/><path d="M-5.5-18.4q-.8-1.35-.4-2.8.4-1.5 1.75-2.3 1.35-.75 2.8-.35Q.2-23.5 1-22.15q.75 1.35.3 2.85-.35 1.5-1.7 2.25-1.35.8-2.85.4T-5.5-18.4" fill="url(#g)" style="fill:url(#h)" transform="translate(8.5 25)"/><path d="M-6.5 3.2Q-8 .65-7.2-2.2q.75-2.8 3.3-4.25 2.5-1.5 5.35-.75 2.8.8 4.25 3.35 1.5 2.5.75 5.35-.8 2.8-3.3 4.25-2.55 1.45-5.4.7-2.8-.75-4.25-3.25" fill="url(#i)" style="fill:url(#j)" transform="translate(8.5 25)"/></g></defs></svg>

<?xml version="1.0" encoding="UTF-8" standalone="no"?>
<svg
   height="32.755665"
   width="16.309057"
   version="1.1"
   id="svg2184"
   sodipodi:docname="up.svg"
   inkscape:version="1.1 (c4e8f9ed74, 2021-05-24)"
   xmlns:inkscape="http://www.inkscape.org/namespaces/inkscape"
   xmlns:sodipodi="http://sodipodi.sourceforge.net/DTD/sodipodi-0.dtd"
   xmlns:xlink="http://www.w3.org/1999/xlink"
   xmlns="http://www.w3.org/2000/svg"
   xmlns:svg="http://www.w3.org/2000/svg">
  <sodipodi:namedview
     id="namedview2186"
     pagecolor="#505050"
     bordercolor="#eeeeee"
     borderopacity="1"
     inkscape:pageshadow="0"
     inkscape:pageopacity="0"
     inkscape:pagecheckerboard="0"
     showgrid="false"
     inkscape:zoom="8.8237053"
     inkscape:cx="-3.1732701"
     inkscape:cy="7.3665198"
     inkscape:current-layer="g2099" />
  <g
     transform="translate(89.070058,26.365002)"
     id="g2099"
     style="display:inline">
    <use
       height="20.85"
       transform="translate(-88.95,-14.9)"
       width="16.200001"
       xlink:href="#shape0"
       id="use2092"
       x="0"
       y="0"
       style="display:none" />
    <use
       height="19.1"
       transform="translate(-87.95,-14.2)"
       width="14.4"
       xlink:href="#shape4"
       id="use2096"
       x="0"
       y="0"
       style="display:none" />
    <use
       height="32.75"
       transform="translate(-89.081058,-26.348335)"
       width="16.200001"
       xlink:href="#sprite4"
       id="use2400"
       x="0"
       y="0"
       style="display:inline" />
  </g>
  <defs
     id="defs2182">
    <g
       id="shape0"
       transform="translate(88.95,14.9)">
      <path
         d="m -85.85,-14.25 q 1.7,-1 3.6,-0.5 h 0.05 q 1.5,0.4 2.45,1.65 l 0.4,0.6 q 0.85,1.45 0.55,3.1 h 1.6 q 2.1,1.05 3.35,3.25 1.65,2.85 0.8,6.1 -0.85,3.2 -3.75,4.9 -2.9,1.65 -6.15,0.8 -3.2,-0.9 -4.9,-3.75 -1.65,-2.9 -0.8,-6.15 0.45,-1.7 1.5,-2.95 l -0.4,-0.6 q -1,-1.7 -0.5,-3.55 0.45,-1.85 2.05,-2.8 l 0.15,-0.1"
         fill="#884100"
         fill-rule="evenodd"
         stroke="none"
         id="path2101" />
    </g>
    <g
       id="sprite0"
       transform="translate(0,-1.5)">
      <use
         height="25"
         transform="matrix(1,0,0,1.0018,0,3.0279)"
         width="153.89999"
         xlink:href="#sprite1"
         id="use2104"
         x="0"
         y="0" />
      <use
         height="25"
         transform="matrix(1,0,0,1.0018,0,2.2279)"
         width="153.89999"
         xlink:href="#sprite2"
         id="use2106"
         x="0"
         y="0" />
      <use
         height="25"
         transform="matrix(1,0,0,1.0018,0,1.4779)"
         width="153.89999"
         xlink:href="#sprite2"
         id="use2108"
         x="0"
         y="0" />
      <use
         height="25"
         transform="matrix(1,0,0,1.0018,0,1.4779)"
         width="153.89999"
         xlink:href="#sprite1"
         id="use2110"
         x="0"
         y="0" />
      <use
         height="13.25"
         transform="matrix(1,0,0,1.0018,2.35,2.5382)"
         width="150"
         xlink:href="#sprite3"
         id="use2112"
         x="0"
         y="0" />
    </g>
    <g
       id="sprite1"
       transform="translate(76.95,12.5)">
      <use
         height="25"
         transform="translate(-76.95,-12.5)"
         width="153.89999"
         xlink:href="#shape1"
         id="use2115"
         x="0"
         y="0" />
    </g>
    <g
       id="shape1"
       transform="translate(76.95,12.5)">
      <path
         d="m 69,-12.5 q 7.9,0 7.95,7.9 V 4.55 Q 76.9,12.45 69,12.5 H -69.05 q -7.9,-0.05 -7.9,-7.95 V -4.6 q 0,-7.9 7.9,-7.9 H 69"
         fill="url(#gradient0)"
         fill-rule="evenodd"
         stroke="none"
         id="path2118" />
    </g>
    <linearGradient
       gradientTransform="matrix(0,-0.0081,0.0153,0,0.8,9.85)"
       gradientUnits="userSpaceOnUse"
       id="gradient0"
       spreadMethod="pad"
       x1="-819.20001"
       x2="819.20001">
      <stop
         offset="0.0"
         stop-color="#d1b2b2"
         id="stop2121" />
      <stop
         offset="1.0"
         stop-color="#d1b2b2"
         stop-opacity="0.0"
         id="stop2123" />
    </linearGradient>
    <g
       id="sprite2"
       transform="translate(76.95,12.5)">
      <use
         height="25"
         transform="translate(-76.95,-12.5)"
         width="153.89999"
         xlink:href="#shape2"
         id="use2126"
         x="0"
         y="0" />
    </g>
    <g
       id="shape2"
       transform="translate(76.95,12.5)">
      <path
         d="m -69.05,12.5 q -7.9,-0.05 -7.9,-7.95 V -4.6 q 0,-7.9 7.9,-7.9 H 69 q 7.9,0 7.95,7.9 V 4.55 Q 76.9,12.45 69,12.5 H -69.05"
         fill="#884100"
         fill-rule="evenodd"
         stroke="none"
         id="path2129" />
    </g>
    <g
       id="sprite3"
       transform="translate(75,6.65)">
      <use
         height="13.25"
         transform="translate(-75,-6.65)"
         width="150"
         xlink:href="#shape3"
         id="use2132"
         x="0"
         y="0" />
    </g>
    <g
       id="shape3"
       transform="translate(75,6.65)">
      <path
         d="m 69.1,-6.65 q 2.45,0 4.2,1.75 1.7,1.75 1.7,4.25 V 0.6 Q 75,3.1 73.3,4.85 71.55,6.6 69.1,6.6 H -69.1 q -2.45,0 -4.15,-1.75 Q -75,3.1 -75,0.6 v -1.25 q 0,-2.5 1.75,-4.25 1.7,-1.75 4.15,-1.75 H 69.1"
         fill="url(#gradient1)"
         fill-rule="evenodd"
         stroke="none"
         id="path2135" />
    </g>
    <linearGradient
       gradientTransform="matrix(0,0.0074,-0.0079,0,0.05,0)"
       gradientUnits="userSpaceOnUse"
       id="gradient1"
       spreadMethod="pad"
       x1="-819.20001"
       x2="819.20001">
      <stop
         offset="0.0"
         stop-color="#ffffff"
         id="stop2138" />
      <stop
         offset="1.0"
         stop-color="#ffffff"
         stop-opacity="0.0"
         id="stop2140" />
    </linearGradient>
    <g
       id="shape4"
       transform="translate(87.95,14.2)">
      <path
         d="m -84.15,-8.25 q 2.5,-1.5 5.35,-0.75 2.8,0.8 4.25,3.35 1.5,2.5 0.75,5.35 -0.8,2.8 -3.3,4.25 -2.55,1.45 -5.4,0.7 -2.8,-0.75 -4.25,-3.25 -1.5,-2.55 -0.7,-5.4 0.75,-2.8 3.3,-4.25"
         fill="url(#gradient2)"
         fill-rule="evenodd"
         stroke="none"
         id="path2143" />
      <path
         d="m -85.15,-7.6 v -4.45 q -0.05,-0.45 0.4,-0.75 l 1.1,-0.3 1.1,0.3 q 0.4,0.3 0.4,0.75 v 4.45 h -3"
         fill="url(#gradient3)"
         fill-rule="evenodd"
         stroke="none"
         id="path2145" />
      <path
         d="m -85.15,-7.6 h 3 v 4.05 q 0,0.4 -0.4,0.75 l -1.1,0.3 q -0.65,0 -1.1,-0.3 -0.45,-0.35 -0.4,-0.75 V -7.6"
         fill="url(#gradient4)"
         fill-rule="evenodd"
         stroke="none"
         id="path2147" />
      <path
         d="m -80.75,-13.2 h 0.6 l 1.1,1.3 h -0.05 q 1,1.7 0.55,3.6 -0.5,1.8 -2.1,2.8 l -0.15,0.1 q -1.7,0.95 -3.6,0.45 -1.55,-0.4 -2.5,-1.65 l -0.35,-0.55 -0.5,-1.1 q -0.35,-1.2 0,-2.5 0.25,-1 0.85,-1.75 l 0.2,-0.2 0.5,-0.5 q -0.9,0.8 -1.2,2.1 -0.4,1.75 0.55,3.35 0.9,1.55 2.6,2.1 1.7,0.5 3.2,-0.35 1.45,-0.85 1.85,-2.6 0.4,-1.7 -0.5,-3.3 -0.45,-0.8 -1.05,-1.3"
         fill="#884100"
         fill-rule="evenodd"
         stroke="none"
         id="path2149" />
      <path
         d="m -86.2,-13.2 0.7,-0.5 q 1.5,-0.85 3.2,-0.3 0.85,0.25 1.55,0.8 0.6,0.5 1.05,1.3 0.9,1.6 0.5,3.3 -0.4,1.75 -1.85,2.6 -1.5,0.85 -3.2,0.35 -1.7,-0.55 -2.6,-2.1 -0.95,-1.6 -0.55,-3.35 0.3,-1.3 1.2,-2.1"
         fill="url(#gradient5)"
         fill-rule="evenodd"
         stroke="none"
         id="path2151" />
    </g>
    <linearGradient
       gradientTransform="matrix(-0.0028,-0.0048,0.0075,-0.0043,-80.65,-2.15)"
       gradientUnits="userSpaceOnUse"
       id="gradient2"
       spreadMethod="pad"
       x1="-819.20001"
       x2="819.20001">
      <stop
         offset="0.0"
         stop-color="#db6f02"
         id="stop2154" />
      <stop
         offset="0.48627450980392156"
         stop-color="#fea64e"
         id="stop2156" />
      <stop
         offset="1.0"
         stop-color="#ffead5"
         id="stop2158" />
    </linearGradient>
    <linearGradient
       gradientTransform="matrix(-0.0018,0,0,-0.0074,-83.65,-7)"
       gradientUnits="userSpaceOnUse"
       id="gradient3"
       spreadMethod="pad"
       x1="-819.20001"
       x2="819.20001">
      <stop
         offset="0.0"
         stop-color="#db6f02"
         id="stop2161" />
      <stop
         offset="0.48627450980392156"
         stop-color="#fd9935"
         id="stop2163" />
      <stop
         offset="1.0"
         stop-color="#ffead5"
         id="stop2165" />
    </linearGradient>
    <linearGradient
       gradientTransform="matrix(-0.0018,0,0,-0.0074,-83.65,-8.55)"
       gradientUnits="userSpaceOnUse"
       id="gradient4"
       spreadMethod="pad"
       x1="-819.20001"
       x2="819.20001">
      <stop
         offset="0.0"
         stop-color="#db6f02"
         id="stop2168" />
      <stop
         offset="0.48627450980392156"
         stop-color="#fd9935"
         id="stop2170" />
      <stop
         offset="1.0"
         stop-color="#ffead5"
         id="stop2172" />
    </linearGradient>
    <linearGradient
       gradientTransform="matrix(-0.0018,-0.003,0.0044,-0.0025,-83.3,-9.85)"
       gradientUnits="userSpaceOnUse"
       id="gradient5"
       spreadMethod="pad"
       x1="-819.20001"
       x2="819.20001">
      <stop
         offset="0.0"
         stop-color="#db6f02"
         id="stop2175" />
      <stop
         offset="0.48627450980392156"
         stop-color="#fd8002"
         id="stop2177" />
      <stop
         offset="1.0"
         stop-color="#ffead5"
         id="stop2179" />
    </linearGradient>
    <g
       id="sprite0-9">
      <use
         height="25"
         transform="matrix(1,0,0,1.0018,0,3.2779)"
         width="153.89999"
         xlink:href="#sprite1-4"
         id="use2405"
         x="0"
         y="0" />
      <use
         height="25"
         transform="matrix(1,0,0,1.0018,0,1.7779)"
         width="153.89999"
         xlink:href="#sprite1-4"
         id="use2407"
         x="0"
         y="0" />
      <use
         height="25"
         transform="matrix(1,0,0,1.0018,0,0.7279)"
         width="153.89999"
         xlink:href="#sprite2-2"
         id="use2409"
         x="0"
         y="0" />
      <use
         height="25"
         transform="matrix(1,0,0,1.0018,0,-0.0221)"
         width="153.89999"
         xlink:href="#sprite2-2"
         id="use2411"
         x="0"
         y="0" />
      <use
         height="25"
         transform="matrix(1,0,0,1.0018,0,-0.0221)"
         width="153.89999"
         xlink:href="#sprite1-4"
         id="use2413"
         x="0"
         y="0" />
      <use
         height="13.25"
         transform="matrix(1,0,0,1.0018,2.35,1.0382)"
         width="150"
         xlink:href="#sprite3-3"
         id="use2415"
         x="0"
         y="0" />
    </g>
    <g
       id="sprite1-4"
       transform="translate(76.95,12.5)">
      <use
         height="25"
         transform="translate(-76.95,-12.5)"
         width="153.89999"
         xlink:href="#shape0-8"
         id="use2418"
         x="0"
         y="0" />
    </g>
    <g
       id="shape0-8"
       transform="translate(76.95,12.5)">
      <path
         d="m 69,-12.5 q 7.9,0 7.95,7.9 V 4.55 Q 76.9,12.45 69,12.5 H -69.05 q -7.9,-0.05 -7.9,-7.95 V -4.6 q 0,-7.9 7.9,-7.9 H 69"
         fill="url(#gradient0)"
         fill-rule="evenodd"
         stroke="none"
         id="path2421"
         style="fill:url(#gradient0-1)" />
    </g>
    <linearGradient
       gradientTransform="matrix(0,-0.0081,0.0153,0,0.8,9.85)"
       gradientUnits="userSpaceOnUse"
       id="gradient0-1"
       spreadMethod="pad"
       x1="-819.20001"
       x2="819.20001">
      <stop
         offset="0.0"
         stop-color="#a7a7a7"
         stop-opacity="0.3764706"
         id="stop2424" />
      <stop
         offset="1.0"
         stop-color="#a7a7a7"
         stop-opacity="0.0"
         id="stop2426" />
    </linearGradient>
    <g
       id="sprite2-2"
       transform="translate(76.95,12.5)">
      <use
         height="25"
         transform="translate(-76.95,-12.5)"
         width="153.89999"
         xlink:href="#shape1-9"
         id="use2429"
         x="0"
         y="0" />
    </g>
    <g
       id="shape1-9"
       transform="translate(76.95,12.5)">
      <path
         d="m -69.05,12.5 q -7.9,-0.05 -7.9,-7.95 V -4.6 q 0,-7.9 7.9,-7.9 H 69 q 7.9,0 7.95,7.9 V 4.55 Q 76.9,12.45 69,12.5 H -69.05"
         fill="#884100"
         fill-rule="evenodd"
         stroke="none"
         id="path2432" />
    </g>
    <g
       id="sprite3-3"
       transform="translate(75,6.65)">
      <use
         height="13.25"
         transform="translate(-75,-6.65)"
         width="150"
         xlink:href="#shape2-9"
         id="use2435"
         x="0"
         y="0" />
    </g>
    <g
       id="shape2-9"
       transform="translate(75,6.65)">
      <path
         d="m 69.1,-6.65 q 2.45,0 4.2,1.75 1.7,1.75 1.7,4.25 V 0.6 Q 75,3.1 73.3,4.85 71.55,6.6 69.1,6.6 H -69.1 q -2.45,0 -4.15,-1.75 Q -75,3.1 -75,0.6 v -1.25 q 0,-2.5 1.75,-4.25 1.7,-1.75 4.15,-1.75 H 69.1"
         fill="url(#gradient1)"
         fill-rule="evenodd"
         stroke="none"
         id="path2438"
         style="fill:url(#gradient1-0)" />
    </g>
    <linearGradient
       gradientTransform="matrix(0,0.0074,-0.0079,0,0.05,0)"
       gradientUnits="userSpaceOnUse"
       id="gradient1-0"
       spreadMethod="pad"
       x1="-819.20001"
       x2="819.20001">
      <stop
         offset="0.0"
         stop-color="#ffffff"
         id="stop2441" />
      <stop
         offset="1.0"
         stop-color="#ffffff"
         stop-opacity="0.0"
         id="stop2443" />
    </linearGradient>
    <g
       id="sprite4"
       transform="translate(8.5,25)">
      <use
         height="32.75"
         transform="translate(-8.5,-25)"
         width="16.200001"
         xlink:href="#shape3-8"
         id="use2446"
         x="0"
         y="0" />
    </g>
    <g
       id="shape3-8"
       transform="translate(8.5,25)">
      <path
         d="m -8.2,-2.45 q 0.75,-2.85 3.15,-4.45 v -9.5 l -1.3,-1.5 q -1,-1.7 -0.5,-3.55 0.5,-1.95 2.2,-2.9 1.7,-1 3.6,-0.5 H -1 q 1.85,0.5 2.85,2.25 0.95,1.65 0.45,3.55 -0.5,1.9 -2.2,2.9 l -0.15,0.1 v 7.6 l 1.75,0.3 q 3.2,0.85 4.9,3.8 1.65,2.85 0.8,6.1 Q 6.55,4.95 3.65,6.65 0.75,8.3 -2.5,7.45 -5.7,6.55 -7.4,3.7 -9.05,0.8 -8.2,-2.45"
         fill="#884100"
         fill-rule="evenodd"
         stroke="none"
         id="path2449" />
      <path
         d="m -4.05,-12.05 v -6.25 q -0.05,-0.65 0.4,-1.05 0.45,-0.45 1.1,-0.45 0.65,0 1.1,0.45 0.4,0.4 0.4,1.05 v 6.25 h -3"
         fill="url(#gradient2)"
         fill-rule="evenodd"
         stroke="none"
         id="path2451"
         style="fill:url(#gradient2-8)" />
      <path
         d="m -4.05,-12.05 h 3 v 5.75 q 0,0.6 -0.4,1.05 -0.45,0.45 -1.1,0.45 -0.65,0 -1.1,-0.45 -0.45,-0.45 -0.4,-1.05 v -5.75"
         fill="url(#gradient3)"
         fill-rule="evenodd"
         stroke="none"
         id="path2453"
         style="fill:url(#gradient3-5)" />
      <path
         d="m -5.5,-18.4 q -0.8,-1.35 -0.4,-2.8 0.4,-1.5 1.75,-2.3 1.35,-0.75 2.8,-0.35 1.55,0.35 2.35,1.7 0.75,1.35 0.3,2.85 -0.35,1.5 -1.7,2.25 -1.35,0.8 -2.85,0.4 -1.5,-0.4 -2.25,-1.75"
         fill="url(#gradient4)"
         fill-rule="evenodd"
         stroke="none"
         id="path2455"
         style="fill:url(#gradient4-0)" />
      <path
         d="M -6.5,3.2 Q -8,0.65 -7.2,-2.2 -6.45,-5 -3.9,-6.45 -1.4,-7.95 1.45,-7.2 4.25,-6.4 5.7,-3.85 7.2,-1.35 6.45,1.5 5.65,4.3 3.15,5.75 0.6,7.2 -2.25,6.45 -5.05,5.7 -6.5,3.2"
         fill="url(#gradient5)"
         fill-rule="evenodd"
         stroke="none"
         id="path2457"
         style="fill:url(#gradient5-9)" />
    </g>
    <linearGradient
       gradientTransform="matrix(-0.0018,0,0,-0.0105,-2.55,-11.2)"
       gradientUnits="userSpaceOnUse"
       id="gradient2-8"
       spreadMethod="pad"
       x1="-819.20001"
       x2="819.20001">
      <stop
         offset="0.0"
         stop-color="#db6f02"
         id="stop2460" />
      <stop
         offset="0.48627450980392156"
         stop-color="#fd9935"
         id="stop2462" />
      <stop
         offset="1.0"
         stop-color="#ffead5"
         id="stop2464" />
    </linearGradient>
    <linearGradient
       gradientTransform="matrix(-0.0018,0,0,-0.0105,-2.55,-13.4)"
       gradientUnits="userSpaceOnUse"
       id="gradient3-5"
       spreadMethod="pad"
       x1="-819.20001"
       x2="819.20001">
      <stop
         offset="0.0"
         stop-color="#db6f02"
         id="stop2467" />
      <stop
         offset="0.48627450980392156"
         stop-color="#fd9935"
         id="stop2469" />
      <stop
         offset="1.0"
         stop-color="#ffead5"
         id="stop2471" />
    </linearGradient>
    <linearGradient
       gradientTransform="matrix(-0.0015,-0.0025,0.004,-0.0023,-2.25,-20.25)"
       gradientUnits="userSpaceOnUse"
       id="gradient4-0"
       spreadMethod="pad"
       x1="-819.20001"
       x2="819.20001">
      <stop
         offset="0.0"
         stop-color="#db6f02"
         id="stop2474" />
      <stop
         offset="0.48627450980392156"
         stop-color="#fd8002"
         id="stop2476" />
      <stop
         offset="1.0"
         stop-color="#ffead5"
         id="stop2478" />
    </linearGradient>
    <linearGradient
       gradientTransform="matrix(-0.0028,-0.0048,0.0075,-0.0043,-0.4,-0.35)"
       gradientUnits="userSpaceOnUse"
       id="gradient5-9"
       spreadMethod="pad"
       x1="-819.20001"
       x2="819.20001">
      <stop
         offset="0.0"
         stop-color="#db6f02"
         id="stop2481" />
      <stop
         offset="0.48627450980392156"
         stop-color="#fea64e"
         id="stop2483" />
      <stop
         offset="1.0"
         stop-color="#ffead5"
         id="stop2485" />
    </linearGradient>
  </defs>
</svg>
